X: 1
T: Noel Hill's
M: 4/4
L: 1/8
R: reel
K: Bmin
|:fB (3BBB fBde|fB (3BBB fBde|fB (3BBB fBcB|A2 af eAce:|
|:fBbB eAce|f2 bf eAce|fBbB eAce|feaf eAce:|
|:f2 fe fdde|faaf ~e2 de|f2 fe fdde|faaf e4:|
